src/assets/svg/nimi-logo-text.svg

<svg fill="none" height="171" viewBox="0 0 517 171" width="517" xmlns="http://www.w3.org/2000/svg" xmlns:xlink="http://www.w3.org/1999/xlink"><linearGradient id="a" gradientUnits="userSpaceOnUse" x1="80.9835" x2="167.669" y1="-73.1681" y2="263.638"><stop offset="0" stop-color="#4368ea"/><stop offset="1" stop-color="#c490dd"/></linearGradient><g fill="url(#a)"><path d="m132.263 28.9584c-.546-7.7135-3.662-12.8558-9.428-15.4269-5.843-2.5712-11.609-2.5712-17.374 0-5.7661 2.5711-8.8826 7.7134-9.2722 15.4269.0779 12.622.0779 25.244.1558 37.8661 0 5.376 0 10.7521.0779 16.1281-20.9588-21.1925-43.9433-39.8139-69.1094-55.9421-4.4411-2.5711-8.5705-3.4282-12.4662-2.4153-.7013.0779-1.3246.2338-1.9479.3896-5.14228 1.5583-8.72632 4.3631-10.67416 8.4926-2.025755 4.1294-2.649065 8.6484-1.947842 13.6349 5.064392 37.6323 13.323202 74.5637 24.620702 110.7937 2.727 7.246 7.3239 11.297 13.6349 12.232 6.389.935 11.9208-.545 16.7515-4.597 4.8306-3.973 6.311-9.739 4.3632-17.219-6.7785-21.66-12.3883-43.554-16.9073-65.6811 21.0367 17.9981 40.7489 37.3991 59.137 58.2791 5.921 5.61 12.466 6.857 19.4 3.74 6.934-3.116 10.752-8.57 11.298-16.517-.078-33.0359-.156-66.0713-.312-99.1846z"/><path d="m209.75 24.9069c-4.675-1.1687-9.272-.6233-13.713 1.7141s-7.246 5.9214-8.415 10.83c-1.169 5.9214-2.337 11.9208-3.506 17.8422-5.999 30.0747-11.921 60.1498-17.842 90.2238-.935 4.909-.312 9.506 1.792 13.635 2.181 4.13 5.765 6.935 10.752 8.493 4.753 1.169 9.349.545 13.713-1.792 4.441-2.26 7.246-5.922 8.492-10.83 2.338-11.999 4.753-23.998 7.09-35.996 4.753-23.9978 9.506-47.9952 14.259-71.9926.935-4.9865.311-9.5055-1.87-13.6349-2.182-4.1295-5.766-7.0123-10.752-8.4926z"/><path d="m423.585 107.34c-18.621-29.4518-33.425-60.6952-44.332-93.8085-3.585-8.80429-9.35-13.089548-17.142-12.855806-7.869.311654-13.712 4.596906-17.608 12.855806l-20.258 52.0463c-11.92-15.5048-23.997-30.8538-36.229-46.1249-4.519-4.7527-10.129-6.311-16.752-4.6748-3.974.7012-7.402 2.4932-10.285 5.2981-2.804 2.8828-4.441 6.7785-4.83 11.765-1.714 37.6323-.779 75.2648 2.883 112.8188.545 4.987 2.337 9.272 5.454 12.778 3.116 3.506 7.323 5.22 12.544 5.22 4.752 0 8.96-1.714 12.622-5.22s5.454-7.713 5.454-12.778c-.078-.779-.078-1.48-.156-2.259-.078-1.403-.156-2.883-.234-4.363-.078-1.403-.234-2.727-.545-3.896-1.481-17.531-2.338-34.9833-2.649-52.436 7.479 9.6613 14.959 19.4 22.283 29.218 5.22 6.389 11.22 9.193 17.92 8.414 6.623-.857 11.687-5.064 15.037-12.7 4.987-12.9333 10.051-25.7891 15.038-38.7228 8.804 19.946 19.089 39.1908 30.698 57.6558 4.441 6.311 9.895 9.116 16.284 8.337 6.389-.701 11.375-3.584 15.037-8.726 3.584-5.065 3.506-10.986-.234-17.842z"/><path d="m503.721 24.9069c-4.675-1.1687-9.272-.6233-13.713 1.7141s-7.246 5.9214-8.414 10.83c-1.169 5.9214-2.338 11.9208-3.506 17.8422-6 30.0747-11.921 60.1498-17.843 90.2238-.935 4.909-.311 9.506 1.792 13.635 2.182 4.13 5.766 6.935 10.752 8.493 4.753 1.169 9.35.545 13.713-1.792 4.441-2.26 7.246-5.922 8.493-10.83 2.337-11.999 4.753-23.998 7.09-35.996 4.753-23.9978 9.505-47.9952 14.258-71.9926.935-4.9865.312-9.5055-1.87-13.6349-2.181-4.1295-5.765-7.0123-10.752-8.4926z"/></g></svg>

<svg width="517" height="171" viewBox="0 0 517 171" fill="none" xmlns="http://www.w3.org/2000/svg">
<path d="M132.263 28.9584C131.717 21.2449 128.601 16.1026 122.835 13.5315C116.992 10.9603 111.226 10.9603 105.461 13.5315C99.6949 16.1026 96.5784 21.2449 96.1888 28.9584C96.2667 41.5804 96.2667 54.2024 96.3446 66.8245C96.3446 72.2005 96.3446 77.5766 96.4225 82.9526C75.4637 61.7601 52.4792 43.1387 27.3131 27.0105C22.872 24.4394 18.7426 23.5823 14.8469 24.5952C14.1456 24.6731 13.5223 24.829 12.899 24.9848C7.75672 26.5431 4.17268 29.3479 2.22484 33.4774C0.199085 37.6068 -0.424225 42.1258 0.276998 47.1123C5.34139 84.7446 13.6002 121.676 24.8977 157.906C27.6247 165.152 32.2216 169.203 38.5326 170.138C44.9216 171.073 50.4534 169.593 55.2841 165.541C60.1147 161.568 61.5951 155.802 59.6473 148.322C52.8688 126.662 47.259 104.768 42.74 82.6409C63.7767 100.639 83.4889 120.04 101.877 140.92C107.798 146.53 114.343 147.777 121.277 144.66C128.211 141.544 132.029 136.09 132.575 128.143C132.497 95.1071 132.419 62.0717 132.263 28.9584Z" fill="url(#paint0_linear_212_7874)"/>
<path d="M209.75 24.9069C205.075 23.7382 200.478 24.2836 196.037 26.621C191.596 28.9584 188.791 32.5424 187.622 37.451C186.453 43.3724 185.285 49.3718 184.116 55.2932C178.117 85.3679 172.195 115.443 166.274 145.517C165.339 150.426 165.962 155.023 168.066 159.152C170.247 163.282 173.831 166.087 178.818 167.645C183.571 168.814 188.167 168.19 192.531 165.853C196.972 163.593 199.777 159.931 201.023 155.023C203.361 143.024 205.776 131.025 208.113 119.027C212.866 95.0292 217.619 71.0318 222.372 47.0344C223.307 42.0479 222.683 37.5289 220.502 33.3995C218.32 29.27 214.736 26.3872 209.75 24.9069Z" fill="url(#paint1_linear_212_7874)"/>
<path d="M423.585 107.34C404.964 77.8882 390.16 46.6448 379.253 13.5315C375.668 4.72721 369.903 0.441952 362.111 0.675694C354.242 0.987348 348.399 5.2726 344.503 13.5315L324.245 65.5778C312.325 50.073 300.248 34.724 288.016 19.4529C283.497 14.7002 277.887 13.1419 271.264 14.7781C267.29 15.4793 263.862 17.2713 260.979 20.0762C258.175 22.959 256.538 26.8547 256.149 31.8412C254.435 69.4735 255.37 107.106 259.032 144.66C259.577 149.647 261.369 153.932 264.486 157.438C267.602 160.944 271.809 162.658 277.03 162.658C281.782 162.658 285.99 160.944 289.652 157.438C293.314 153.932 295.106 149.725 295.106 144.66C295.028 143.881 295.028 143.18 294.95 142.401C294.872 140.998 294.794 139.518 294.716 138.038C294.638 136.635 294.482 135.311 294.171 134.142C292.69 116.611 291.833 99.1587 291.522 81.706C299.001 91.3673 306.481 101.106 313.805 110.924C319.025 117.313 325.025 120.117 331.725 119.338C338.348 118.481 343.412 114.274 346.762 106.638C351.749 93.7047 356.813 80.8489 361.8 67.9152C370.604 87.8612 380.889 107.106 392.498 125.571C396.939 131.882 402.393 134.687 408.782 133.908C415.171 133.207 420.157 130.324 423.819 125.182C427.403 120.117 427.325 114.196 423.585 107.34Z" fill="url(#paint2_linear_212_7874)"/>
<path d="M503.721 24.9069C499.046 23.7382 494.449 24.2836 490.008 26.621C485.567 28.9584 482.762 32.5424 481.594 37.451C480.425 43.3724 479.256 49.3718 478.088 55.2932C472.088 85.3679 466.167 115.443 460.245 145.517C459.31 150.426 459.934 155.023 462.037 159.152C464.219 163.282 467.803 166.087 472.789 167.645C477.542 168.814 482.139 168.19 486.502 165.853C490.943 163.593 493.748 159.931 494.995 155.023C497.332 143.024 499.748 131.025 502.085 119.027C506.838 95.0292 511.59 71.0318 516.343 47.0344C517.278 42.0479 516.655 37.5289 514.473 33.3995C512.292 29.27 508.708 26.3872 503.721 24.9069Z" fill="url(#paint3_linear_212_7874)"/>
<defs>
<linearGradient id="paint0_linear_212_7874" x1="80.9835" y1="-73.1681" x2="167.669" y2="263.638" gradientUnits="userSpaceOnUse">
<stop stop-color="#4368EA"/>
<stop offset="1" stop-color="#C490DD"/>
</linearGradient>
<linearGradient id="paint1_linear_212_7874" x1="80.9835" y1="-73.1681" x2="167.669" y2="263.638" gradientUnits="userSpaceOnUse">
<stop stop-color="#4368EA"/>
<stop offset="1" stop-color="#C490DD"/>
</linearGradient>
<linearGradient id="paint2_linear_212_7874" x1="80.9835" y1="-73.1681" x2="167.669" y2="263.638" gradientUnits="userSpaceOnUse">
<stop stop-color="#4368EA"/>
<stop offset="1" stop-color="#C490DD"/>
</linearGradient>
<linearGradient id="paint3_linear_212_7874" x1="80.9835" y1="-73.1681" x2="167.669" y2="263.638" gradientUnits="userSpaceOnUse">
<stop stop-color="#4368EA"/>
<stop offset="1" stop-color="#C490DD"/>
</linearGradient>
</defs>
</svg>
